X:92
M:2/4
L:1/8
K:D
| FG FE | FA BA | dd cd | BA FE | 
| dd/c/ de | dc BA | dd/c/ de | dc B2 | 
dd/c/ de | dc BA | Be ed | Bc d2 :|| 

